X:41
Q:180
T:Walter Bulwer's No. 4 Polka
M:4/4
L:1/8
K:G
D3/2G/2|:B2G2D2G3/2A/2|B2G2D2(3GAB|c2A2F2E3/2D/2|c2A2F2D3/2G/2|
B2G2D2G3/2A/2|B2G2D2G2|F3/2G/2 A3/2B/2 c3/2d/2 e3/2f/2|1g2 g2 g2 D3/2G/2:|
[2g2 g2 g2 d2|:b2 a2 g2 f2|g3/2f/2 g3/2f/2 g2 B3/2c/2|
d2 A3/2B/2 c2 A2|G3/2A/2 B3/2c/2 d2 d2|b2 a2 g2 f2|g3/2f/2 g3/2f/2 g2 B3/2c/2|
d2 A3/2B/2 c3/2A/2 F3/2D/2|1G2 G3/2F/2 G2 d2:|2G2 G2 G2 z2||



